shared/images/iconfont/kb-iconfont-nav-settings-24.svg

<?xml version="1.0" encoding="UTF-8"?>
<svg width="24px" height="24px" viewBox="0 0 24 24" version="1.1" xmlns="http://www.w3.org/2000/svg" xmlns:xlink="http://www.w3.org/1999/xlink">
    <!-- Generator: sketchtool 49.3 (51167) - http://www.bohemiancoding.com/sketch -->
    <title>6AF6565A-0EDD-4B88-843F-F58F51F4BCAF</title>
    <desc>Created with sketchtool.</desc>
    <defs></defs>
    <g id="Colors,-icons" stroke="none" stroke-width="1" fill="none" fill-rule="evenodd">
        <g id="Icons-2" transform="translate(-94.000000, -491.000000)">
            <g id="kb-iconfont-nav-settings-24" transform="translate(94.000000, 491.000000)">
                <rect id="Rectangle-31" fill="#D8D8D8" opacity="0" x="0" y="0" width="24" height="24"></rect>
                <path d="M21.3331313,14.0533898 L19.9215492,12.959918 C19.9675888,12.6417561 19.9913144,12.3210909 19.9925722,12 C19.9913144,11.6789091 19.9675888,11.3582439 19.9215492,11.040082 L21.3331313,9.94661021 C22.0101528,9.43504915 22.1941931,8.53807903 21.7681472,7.82644351 L20.7471916,6.15702091 C20.3119312,5.44859455 19.3947686,5.14112438 18.5809901,5.43082208 L16.8675602,6.03181422 C16.3215214,5.63991825 15.7249222,5.3145779 15.0919852,5.06354911 L14.7990154,3.39412652 C14.6544208,2.58100585 13.9001866,1.98887189 13.0234404,2.00015865 L10.9815291,2.00015865 C10.1047829,1.98887189 9.35054865,2.58100585 9.20595414,3.39412652 L8.91298427,5.06354911 C8.28004729,5.3145779 7.6834481,5.63991825 7.13740927,6.03181422 L5.42397941,5.43082208 C4.61020086,5.14112438 3.69303834,5.44859455 3.25777792,6.15702091 L2.2368223,7.82644351 C1.80473541,8.53222251 1.97730366,9.42813184 2.64520454,9.94661021 L4.05678666,11.040082 C4.0196482,11.3587954 4.00481981,11.6794586 4.01239729,12 C4.01365508,12.3210909 4.03738066,12.6417561 4.08342029,12.959918 L2.67183817,14.0533898 C1.99481673,14.5649508 1.81077637,15.461921 2.2368223,16.1735565 L3.25777792,17.8429791 C3.69303834,18.5514054 4.61020086,18.8588756 5.42397941,18.5691779 L7.13740927,17.9681858 C7.6834481,18.3600818 8.28004729,18.6854221 8.91298427,18.9364509 L9.20595414,20.6058735 C9.35054865,21.4189942 10.1047829,22.0111281 10.9815291,21.9998413 L13.0234404,21.9998413 C13.9001866,22.0111281 14.6544208,21.4189942 14.7990154,20.6058735 L15.0919852,18.9364509 C15.7263108,18.6915632 16.3233575,18.3687856 16.8675602,17.9765329 L18.5809901,18.577525 C19.3947686,18.8672227 20.3119312,18.5597526 20.7471916,17.8513262 L21.7681472,16.1819036 C22.1993208,15.4683162 22.0148901,14.5659051 21.3331313,14.0533898 Z M12.0024848,15.3388452 C10.0412388,15.3388452 8.45133477,13.8439933 8.45133477,12 C8.45133477,10.1560067 10.0412388,8.66115481 12.0024848,8.66115481 C13.9637307,8.66115481 15.5536347,10.1560067 15.5536347,12 C15.5536347,13.8439933 13.9637307,15.3388452 12.0024848,15.3388452 Z" id="settings" fill="#000000" fill-rule="nonzero"></path>
            </g>
        </g>
    </g>
</svg>

<svg xmlns="http://www.w3.org/2000/svg" width="24" height="24" viewBox="0 0 24 24">
    <path fill="#000" fill-rule="nonzero" d="M21.333 14.053l-1.411-1.093a6.89 6.89 0 0 0 .07-.96 6.89 6.89 0 0 0-.07-.96l1.411-1.093c.677-.512.861-1.409.435-2.12l-1.02-1.67c-.436-.708-1.353-1.016-2.167-.726l-1.713.6a8.28 8.28 0 0 0-1.776-.967l-.293-1.67C14.654 2.581 13.9 1.99 13.023 2h-2.041c-.877-.011-1.631.581-1.776 1.394l-.293 1.67a8.28 8.28 0 0 0-1.776.968L5.424 5.43c-.814-.29-1.731.018-2.166.726l-1.021 1.67c-.432.705-.26 1.601.408 2.12l1.412 1.093c-.037.319-.052.64-.045.96.002.321.025.642.071.96l-1.411 1.093c-.677.512-.861 1.409-.435 2.12l1.02 1.67c.436.708 1.353 1.016 2.167.726l1.713-.6a8.28 8.28 0 0 0 1.776.967l.293 1.67c.145.813.899 1.405 1.776 1.394h2.041c.877.011 1.631-.581 1.776-1.394l.293-1.67a7.905 7.905 0 0 0 1.776-.96l1.713.602c.814.29 1.73-.018 2.166-.727l1.021-1.67c.431-.713.247-1.615-.435-2.128zm-9.33 1.286c-1.962 0-3.552-1.495-3.552-3.339 0-1.844 1.59-3.339 3.551-3.339 1.962 0 3.552 1.495 3.552 3.339 0 1.844-1.59 3.339-3.552 3.339z"/>
</svg>
